X:36
T:Johnny Cope
Z:Jack Campin, http://www.campin.me.uk/
F:Jack Campin's Nine-Note Tunebook
% last edit 03-02-2013
M:C|
L:1/8
Q:1/2=82
K:DMin
A2|D4  DEFG|A2D2 E2DC|C4   CDEF|G2c2 E2
DC|F3F G3 G|A2c2 E2DC|D2c2 AGFE|D4   D2:|
E2|F4  F2C2|FGAB c2GF|E2DC G2C2|EFGA G2
FE|F3F G3 G|A2c2 E2DC|D2c2 AGFE|D4   D2:|

